!!!COM: Bach, Johann Sebastian
!!!CDT: 1685/3//-1750/7/28/
!!!OTL@@DE: Ich dank' dir, Gott, fuer all' Wohltat
!!!AGN: 4-Part Chorale
!!!SCT: BH 223
!!!SCT: BWV 346
**harm	**root	**kern	**kern	**kern	**kern
!	!	!bass	!tenor	!alto	!soprno
*	*Iorgan	*Iorgan	*Iorgan	*Iorgan	*Iorgan
*M4/4	*M4/4	*M4/4	*M4/4	*M4/4	*M4/4
*met(c)	*met(c)	*met(c)	*met(c)	*met(c)	*met(c)
*MM60	*MM60	*MM60	*MM60	*MM60	*MM60
*k[b-]	*k[b-]	*k[b-]	*k[b-]	*k[b-]	*k[b-]
*F:	*F:	*F:	*F:	*F:	*F:
I;	4CC;	4F	8A	4f	4cc
.	.	.	8B-	.	.
=1	=1	=1	=1	=1	=1
V7d/IV	4CC	4E-	4c	4f	4a
viib/V	4FF#	4D	4d	4f	4b
V;	4GG;	4C;	4G;	4e;	4cc;
Vb	4GG	4E	4c	[4g	4cc
=2	=2	=2	=2	=2	=2
I	4CC	4F	[4c	8g]	4a
.	.	.	.	4f	.
V	4GG	4C	8.c]	.	4g
.	.	.	.	8e	.
.	.	.	16B-	.	.
I;	4CC;	4FF;	4A;	4c;	4f;
I	4CC	4F	4A	4c	4f
=3	=3	=3	=3	=3	=3
Vb	4GG	4E	4c	4g	4cc
I	4CC	8F	4f	[4a	4cc
.	.	8E	.	.	.
viib/V	4FF#	4D	4f	8a]	4dd
.	.	.	.	8b	.
V	4GG	4C	4g	[4cc	4ee
=4	=4	=4	=4	=4	=4
Ib	4CC	4A	4f	8cc]	4ff
.	.	.	.	8b	.
Ic/V	4GG	4G	4g	[4cc	4ee
ii7b/V	4AA	4F	4a	4cc_	4dd
V/V	4DD	4G	8.g	8cc]	4dd
.	.	.	.	8b	.
.	.	.	16f	.	.
=5	=5	=5	=5	=5	=5
V;	2GG;	2C;	2e;	2g;	2cc;
r	4r	4r	4r	4r	4r
Ib	4CC	4A	4f	[4a	4cc
!!linebreak: 3
=6	=6	=6	=6	=6	=6
ii7b	4DD	4B-	4f	8a]	4dd
.	.	.	.	[8g	.
V7b/vi	4EE	4C#	4e	8g]	4ee
.	.	.	.	8a	.
vi;	4AA;	4D;	4d;	4a;	4ff;
I	4CC	4F	4A	[4f	4cc
=7	=7	=7	=7	=7	=7
IV	4FF	4.B-	4B-	8f]	4dd
.	.	.	.	8e	.
Ib	8CC	.	4c	8f	4cc
viib/ii	8CC#	8A	.	8f#	.
ii	4DD	8G	4d	8g	4b-
.	.	8A	.	8f#	.
iib	4DD	8B-	4d	[4g	4b-
.	.	8G	.	.	.
=8	=8	=8	=8	=8	=8
VI;	2AA;	2d;	2d;	4g]	2a;
.	.	.	.	4f#;	.
r	4r	4r	4r	4r	4r
Ib	4CC	4A	4f	[4cc	4ff
=9	=9	=9	=9	=9	=9
IV	4FF	8B-	4f	8cc]	4dd
.	.	8A	.	16b-	.
.	.	.	.	16a	.
viib	4BB	4G	4g	4b-	4ee
I;	4CC;	4F;	4c;	4a;	4ff;
ii	4DD	[4G	8g	4b-	4dd
.	.	.	8f	.	.
=10	=10	=10	=10	=10	=10
viioD7/ii	4CC#	8G]	4e-	[4a	4cc
.	.	8F#	.	.	.
ii	4DD	4G	4d	8a]	4b-
.	.	.	.	[8g	.
VI;	4AA;	4D;	4d;	8g]	4a;
.	.	.	.	8f#;	.
Vb	4GG	4E	[4c	4g	4cc
!!linebreak: 3
=11	=11	=11	=11	=11	=11
V7b/ii	4AA	4F#	8c]	4a	4a
.	.	.	[8d	.	.
V7b/ii	4AA	4G#	8d]	4e	4b
.	.	.	16c	.	.
.	.	.	16B	.	.
iii;	4EE;	4A;	4A;	4e;	4cc;
Ib	8CC	8A	8a	8cc	4ff
V7b/V	8DD	8B	8g	[8dd	.
=12	=12	=12	=12	=12	=12
V	4GG	4c	4g	8dd]	4ee
.	.	.	.	4cc	.
V/V	4DD	4G	8.g	.	4dd
.	.	.	.	8b	.
.	.	.	16f	.	.
V;	4GG;	4C;	4e;	4g;	4cc;
Vb	4GG	4E	4c	4g	4cc
=13	=13	=13	=13	=13	=13
I	4CC	8F	4c	4f	8a
.	.	8G	.	.	8b-
Ib	8CC	8A	8f	4f	4cc
V7/IV	8CC	8F	8e-	.	.
IV	4FF	4B-	8.d	8f	4dd
.	.	.	.	4b-	.
.	.	.	16e	.	.
V/IV	4CC	[4F	8.f	.	4cc
.	.	.	.	8a	.
.	.	.	16e-	.	.
=14	=14	=14	=14	=14	=14
ii7d	8DD	8F]	8d	4.g	4b-
V7b	8GG	8E	8c	.	.
I	4CC	4F	4c	.	4a
.	.	.	.	[8f	.
ii7b	8DD	4BB-	8d	8f]	4g
viic	8BB	.	8G	16e	.
.	.	.	.	16d	.
V	4GG	4C	8c	4e	4g
.	.	.	8B-	.	.
=15	=15	=15	=15	=15	=15
I;	1CC;	1FF;	1A;	1c;	1f;
==	==	==	==	==	==
*-	*-	*-	*-	*-	*-
!!chor2scor: -l 3 -s 0.6 -o %b.pmx
!!!YEC: Copyright 1994, David Huron
!!!YEC: Changes/Additions 2001 by Craig Stuart Sapp
!!!YEN: United States of America
!!!SMA: 371 Bach Chorales, edited by Ludwig Erk, C.F. Peters
!!!PDT: 1850, 1865
!!!ONB: Harmony and Root analysis done manually
